src/assets/icons/choose.svg

<svg id="Capa_1" enable-background="new 0 0 512 512" height="512" viewBox="0 0 512 512" width="512" xmlns="http://www.w3.org/2000/svg"><g><g><g><g><path d="m118.33 136.8h-92.358c-10.202 0-18.471-8.27-18.471-18.471v-92.358c0-10.201 8.27-18.471 18.471-18.471h92.357c10.202 0 18.471 8.27 18.471 18.471v92.357c.001 10.202-8.269 18.472-18.47 18.472z" fill="#df75a5"/></g><g><path d="m119.883 7.5c.195 2.565.294 5.157.294 7.772 0 55.853-45.278 101.131-101.131 101.131-3.905 0-7.755-.229-11.545-.66v2.507c0 10.202 8.27 18.471 18.471 18.471h92.357c10.201 0 18.471-8.27 18.471-18.471v-92.357c.001-9.677-7.444-17.603-16.917-18.393z" fill="#dd5790"/></g></g></g><g><g><g><path d="m118.33 298.426h-92.358c-10.202 0-18.471-8.27-18.471-18.471v-92.357c0-10.202 8.27-18.471 18.471-18.471h92.357c10.202 0 18.471 8.27 18.471 18.471v92.357c.001 10.201-8.269 18.471-18.47 18.471z" fill="#ffe07d"/></g><g><path d="m119.883 169.165c.195 2.565.294 5.157.294 7.772 0 55.853-45.278 101.131-101.131 101.131-3.905 0-7.755-.229-11.545-.66v2.507c0 10.202 8.27 18.471 18.471 18.471h92.357c10.201 0 18.471-8.27 18.471-18.471v-92.357c.001-9.678-7.444-17.603-16.917-18.393z" fill="#ffd064"/></g></g></g><g><g><g><g><path d="m399.154 136.8h-92.357c-10.202 0-18.471-8.27-18.471-18.471v-92.358c0-10.202 8.27-18.471 18.471-18.471h92.357c10.202 0 18.471 8.27 18.471 18.471v92.357c0 10.202-8.27 18.472-18.471 18.472z" fill="#b3e59f"/></g><g><path d="m400.707 7.578c.195 2.565.294 5.157.294 7.772 0 55.853-45.278 101.131-101.131 101.131-3.905 0-7.755-.229-11.545-.66v2.507c0 10.202 8.27 18.471 18.471 18.471h92.357c10.201 0 18.471-8.27 18.471-18.471v-92.357c.001-9.677-7.444-17.602-16.917-18.393z" fill="#95d6a4"/></g></g></g><g><g><g><path d="m399.154 298.426h-92.357c-10.202 0-18.471-8.27-18.471-18.471v-92.357c0-10.202 8.27-18.471 18.471-18.471h92.357c10.202 0 18.471 8.27 18.471 18.471v92.357c0 10.201-8.27 18.471-18.471 18.471z" fill="#90d8f9"/></g><g><path d="m400.707 169.204c.195 2.565.294 5.157.294 7.772 0 55.853-45.278 101.131-101.131 101.131-3.905 0-7.755-.229-11.545-.66v2.507c0 10.202 8.27 18.471 18.471 18.471h92.357c10.201 0 18.471-8.27 18.471-18.471v-92.357c.001-9.677-7.444-17.603-16.917-18.393z" fill="#75cef9"/></g></g></g></g><g><g><path d="m91.13 495.129 12.913 9.369h182.404l-10.913-35.326-2.004-36.621c-.18-3.299-.765-6.563-1.74-9.719l-31.486-101.916c-3.234-10.467-14.127-16.867-24.702-14.007-11.102 3.002-17.413 14.577-14.047 25.471l-6.119-19.805c-3.234-10.467-14.126-16.867-24.702-14.007-11.102 3.002-17.413 14.577-14.047 25.471l-5.82-18.84c-3.234-10.467-14.127-16.867-24.702-14.007-11.102 3.002-17.413 14.577-14.047 25.471l-20.133-65.167c-3.234-10.467-14.127-16.867-24.702-14.007-11.102 3.002-17.413 14.577-14.047 25.471l35.781 115.818c-3.294-10.661-14.606-16.633-25.266-13.339-10.661 3.294-16.633 14.606-13.339 25.266l25.842 83.646c2.58 8.353 7.8 15.644 14.876 20.778z" fill="#ffddce"/></g><g><path d="m165.501 504.498h120.946l-10.913-35.326-2.004-36.621c-.18-3.299-.765-6.563-1.74-9.719l-20.235-65.499c-7.816 43.744-29.016 106.115-86.054 147.165z" fill="#ffcbbe"/></g></g><g><path d="m25.971 144.299h92.36c14.319 0 25.97-11.65 25.97-25.97v-92.359c-.001-14.32-11.651-25.97-25.97-25.97h-51.12c-4.143 0-7.5 3.358-7.5 7.5s3.357 7.5 7.5 7.5h51.12c6.049 0 10.97 4.921 10.97 10.97v92.36c0 6.049-4.921 10.97-10.97 10.97h-92.36c-6.049 0-10.97-4.921-10.97-10.97v-92.36c0-6.049 4.921-10.97 10.97-10.97h6.24c4.143 0 7.5-3.358 7.5-7.5s-3.358-7.5-7.5-7.5h-6.24c-14.32 0-25.97 11.65-25.97 25.97v92.36c0 14.319 11.65 25.969 25.97 25.969z"/><path d="m43.96 111.484c3.87 1.473 8.204-.468 9.679-4.339l4.206-11.044h28.651l4.16 11.022c1.133 3.003 3.987 4.854 7.018 4.854.88 0 1.775-.156 2.647-.485 3.875-1.462 5.831-5.79 4.368-9.665l-24.056-63.742c-.025-.068-.052-.136-.08-.204-1.388-3.375-4.642-5.556-8.291-5.556-.003 0-.006 0-.009 0-3.652.003-6.906 2.19-8.289 5.571-.023.056-.046.113-.067.17l-24.276 63.74c-1.475 3.871.469 8.204 4.339 9.678zm28.276-53.169 8.599 22.786h-17.277z"/><path d="m169.126 47.325h54.549c4.143 0 7.5-3.358 7.5-7.5s-3.357-7.5-7.5-7.5h-54.549c-4.143 0-7.5 3.358-7.5 7.5s3.358 7.5 7.5 7.5z"/><path d="m169.126 79.65h34.346c4.143 0 7.5-3.358 7.5-7.5s-3.357-7.5-7.5-7.5h-34.346c-4.143 0-7.5 3.358-7.5 7.5s3.358 7.5 7.5 7.5z"/><path d="m169.126 111.975h34.346c4.143 0 7.5-3.358 7.5-7.5s-3.357-7.5-7.5-7.5h-34.346c-4.143 0-7.5 3.358-7.5 7.5s3.358 7.5 7.5 7.5z"/><path d="m169.126 208.95h54.549c4.143 0 7.5-3.358 7.5-7.5s-3.357-7.5-7.5-7.5h-54.549c-4.143 0-7.5 3.358-7.5 7.5s3.358 7.5 7.5 7.5z"/><path d="m169.126 241.275h34.346c4.143 0 7.5-3.358 7.5-7.5s-3.357-7.5-7.5-7.5h-34.346c-4.143 0-7.5 3.358-7.5 7.5s3.358 7.5 7.5 7.5z"/><path d="m169.126 273.601h34.346c4.143 0 7.5-3.358 7.5-7.5s-3.357-7.5-7.5-7.5h-34.346c-4.143 0-7.5 3.358-7.5 7.5s3.358 7.5 7.5 7.5z"/><path d="m306.797 144.3h92.357c14.321 0 25.972-11.651 25.972-25.972v-92.356c-.001-14.321-11.651-25.972-25.972-25.972h-92.357c-14.321 0-25.972 11.651-25.972 25.972v92.357c0 14.32 11.65 25.971 25.972 25.971zm-10.972-118.328c0-6.05 4.922-10.972 10.972-10.972h92.357c6.05 0 10.972 4.922 10.972 10.972v92.357c0 6.05-4.922 10.972-10.972 10.972h-92.357c-6.05 0-10.972-4.922-10.972-10.972z"/><path d="m358.956 111.975c8.76 0 16.619-2.876 22.729-8.317 1.197-1.067 2.336-2.241 3.383-3.491 2.661-3.174 2.244-7.905-.931-10.565-3.174-2.66-7.905-2.244-10.565.93-.581.693-1.207 1.34-1.863 1.924-3.367 2.999-7.657 4.519-12.753 4.519-13.688 0-24.825-11.137-24.825-24.825s11.137-24.825 24.825-24.825c4.976 0 9.773 1.464 13.875 4.235 3.432 2.318 8.094 1.416 10.413-2.017 2.318-3.432 1.416-8.094-2.017-10.413-6.591-4.452-14.292-6.806-22.271-6.806-21.96 0-39.825 17.866-39.825 39.825s17.865 39.826 39.825 39.826z"/><path d="m399.15 161.629h-46.17c-4.143 0-7.5 3.358-7.5 7.5s3.357 7.5 7.5 7.5h46.17c6.054 0 10.979 4.921 10.979 10.97v92.36c0 6.049-4.926 10.97-10.979 10.97h-92.35c-6.049 0-10.97-4.921-10.97-10.97v-92.36c0-6.049 4.921-10.97 10.97-10.97h11.181c4.143 0 7.5-3.358 7.5-7.5s-3.357-7.5-7.5-7.5h-11.181c-14.319 0-25.97 11.65-25.97 25.97v92.36c0 14.32 11.65 25.97 25.97 25.97h92.35c14.325 0 25.979-11.65 25.979-25.97v-92.36c0-14.319-11.654-25.97-25.979-25.97z"/><path d="m323.266 265.05c.067 2.327.603 4.711 2.348 6.373 1.404 1.395 3.304 2.177 5.283 2.177h.028c.554-.002 13.605-.053 18.817-.143 19.088-.334 32.941-17.023 32.941-39.682 0-23.821-13.506-39.825-33.607-39.825h-18.31c-1.991 0-3.901.792-5.309 2.202-1.406 1.41-2.195 3.321-2.191 5.312v.051.002zm25.811-56.1c13.72 0 18.607 12.824 18.607 24.825 0 12.128-5.629 24.464-18.203 24.684-2.541.044-7.126.08-11.109.104-.024-7.646-.059-19.162-.059-24.859 0-4.758-.02-16.802-.033-24.754z"/><path d="m449.95 47.325h54.549c4.143 0 7.5-3.358 7.5-7.5s-3.357-7.5-7.5-7.5h-54.549c-4.143 0-7.5 3.358-7.5 7.5s3.358 7.5 7.5 7.5z"/><path d="m449.95 79.65h34.346c4.143 0 7.5-3.358 7.5-7.5s-3.357-7.5-7.5-7.5h-34.346c-4.143 0-7.5 3.358-7.5 7.5s3.358 7.5 7.5 7.5z"/><path d="m449.95 111.975h34.346c4.143 0 7.5-3.358 7.5-7.5s-3.357-7.5-7.5-7.5h-34.346c-4.143 0-7.5 3.358-7.5 7.5s3.358 7.5 7.5 7.5z"/><path d="m504.499 193.95h-54.549c-4.143 0-7.5 3.358-7.5 7.5s3.357 7.5 7.5 7.5h54.549c4.143 0 7.5-3.358 7.5-7.5s-3.357-7.5-7.5-7.5z"/><path d="m484.296 226.275h-34.346c-4.143 0-7.5 3.358-7.5 7.5s3.357 7.5 7.5 7.5h34.346c4.143 0 7.5-3.358 7.5-7.5s-3.357-7.5-7.5-7.5z"/><path d="m484.296 258.601h-34.346c-4.143 0-7.5 3.358-7.5 7.5s3.357 7.5 7.5 7.5h34.346c4.143 0 7.5-3.358 7.5-7.5 0-4.143-3.357-7.5-7.5-7.5z"/><path d="m259.396 357.304-11.931-38.608c-4.426-14.338-19.601-22.873-33.823-19.028-4.773 1.29-9.006 3.754-12.389 7.15-5.658-12.357-19.239-19.071-32.48-15.491-4.829 1.305-9.103 3.81-12.505 7.265-2.807-5.648-7.306-10.037-12.65-12.702.45-1.927.682-3.914.682-5.933v-92.36c0-14.32-11.65-25.97-25.97-25.97h-92.36c-14.319 0-25.97 11.65-25.97 25.97v92.36c0 14.32 11.65 25.97 25.97 25.97h32.695l15.918 51.529c-4.299-.772-8.753-.51-13.048.815-11.685 3.612-19.535 14.248-19.535 26.466 0 2.738.417 5.487 1.244 8.183l25.843 83.658c3.091 9.968 9.188 18.482 17.641 24.631l12.91 9.36c1.33.964 2.87 1.428 4.396 1.428 2.321 0 4.611-1.075 6.078-3.098 2.431-3.353 1.684-8.043-1.67-10.475l-12.9-9.353c-5.809-4.225-10.002-10.081-12.126-16.928l-25.836-83.635c-2.132-6.602 1.725-13.943 8.382-15.904 6.477-2.149 14.02 1.821 15.889 8.387l14.29 46.254-4.552 8.622c-1.935 3.663-.533 8.2 3.13 10.134 1.117.59 2.314.869 3.495.869 2.692 0 5.295-1.454 6.64-3.999l6.003-11.37c.929-1.759 1.12-3.815.533-5.716l-50.984-165.043c-4.226-16.574 18.733-23.298 24.409-7.039l38.624 125.014c3.293 9.417 16.94 5.115 14.332-4.428l-18.487-59.839c-.006-.018-.014-.035-.019-.053-1.007-3.309-.643-6.799 1.03-9.834 1.678-3.045 4.457-5.224 7.817-6.132 6.516-1.755 13.512 2.275 15.585 8.997l18.348 59.362c3.293 9.417 16.94 5.115 14.332-4.428 0 0-12.514-40.516-12.52-40.538-1.028-3.326-.67-6.836 1.009-9.883 1.677-3.043 4.455-5.221 7.823-6.131 6.521-1.759 13.509 2.271 15.586 8.981l12.377 40.072c2.793 9.376 17.328 4.798 14.332-4.428l-6.287-20.352c-.994-3.299-.629-6.776 1.038-9.801 1.679-3.045 4.457-5.223 7.823-6.133 6.522-1.766 13.505 2.263 15.577 8.974l11.931 38.61c1.223 3.957 5.418 6.178 9.38 4.951 3.956-1.223 6.173-5.422 4.95-9.38zm-188.196-133.601c-1.345 0-3.846.007-6.594.017h-4.685v-14.77h11.279c4.067 0 7.376 3.309 7.376 7.376 0 4.068-3.309 7.377-7.376 7.377zm40.806 67.205-12.664-41.001c.001-.02.005-.04.006-.06.021-.407.032-.817.032-1.229 0-8.009-3.804-15.141-9.696-19.699 2.454-3.59 3.892-7.927 3.892-12.594 0-12.338-10.038-22.376-22.376-22.376h-18.779c-4.143 0-7.5 3.358-7.5 7.5v64.649c0 2.002.801 3.921 2.224 5.33.355.351.741.663 1.152.933l5.736 18.567h-28.062c-6.049 0-10.97-4.921-10.97-10.97v-92.36c0-6.049 4.921-10.97 10.97-10.97h92.36c6.049 0 10.97 4.921 10.97 10.97v92.36c0 1.084-.162 2.144-.466 3.158-1.539.144-3.087.416-4.63.832-4.685 1.266-8.848 3.663-12.199 6.96z"/><path d="m282.978 467.836-1.959-35.686c-.215-3.935-.911-7.817-2.063-11.525l-9.23-29.88c-1.223-3.957-5.419-6.173-9.38-4.952-3.957 1.223-6.175 5.422-4.952 9.38l9.234 29.892c.791 2.542 1.266 5.201 1.414 7.905l2.01 36.61c.033.611.142 1.217.322 1.802l10.91 35.33c.994 3.221 3.961 5.289 7.163 5.289.733 0 1.479-.108 2.216-.336 3.958-1.222 6.176-5.421 4.953-9.379z"/></g></g></svg>

<svg width="512" height="512" viewBox="0 0 512 512" fill="none" xmlns="http://www.w3.org/2000/svg">
<path d="M118.33 136.8H25.972C15.77 136.8 7.50101 128.53 7.50101 118.329V25.971C7.50101 15.77 15.771 7.5 25.972 7.5H118.329C128.531 7.5 136.8 15.77 136.8 25.971V118.328C136.801 128.53 128.531 136.8 118.33 136.8V136.8Z" fill="#DF75A5"/>
<path d="M119.883 7.5C120.078 10.065 120.177 12.657 120.177 15.272C120.177 71.125 74.899 116.403 19.046 116.403C15.141 116.403 11.291 116.174 7.50101 115.743V118.25C7.50101 128.452 15.771 136.721 25.972 136.721H118.329C128.53 136.721 136.8 128.451 136.8 118.25V25.893C136.801 16.216 129.356 8.29 119.883 7.5V7.5Z" fill="#DD5790"/>
<path d="M118.33 298.426H25.972C15.77 298.426 7.50101 290.156 7.50101 279.955V187.598C7.50101 177.396 15.771 169.127 25.972 169.127H118.329C128.531 169.127 136.8 177.397 136.8 187.598V279.955C136.801 290.156 128.531 298.426 118.33 298.426V298.426Z" fill="#FFE07D"/>
<path d="M119.883 169.165C120.078 171.73 120.177 174.322 120.177 176.937C120.177 232.79 74.899 278.068 19.046 278.068C15.141 278.068 11.291 277.839 7.50101 277.408V279.915C7.50101 290.117 15.771 298.386 25.972 298.386H118.329C128.53 298.386 136.8 290.116 136.8 279.915V187.558C136.801 177.88 129.356 169.955 119.883 169.165V169.165Z" fill="#FFD064"/>
<path d="M399.154 136.8H306.797C296.595 136.8 288.326 128.53 288.326 118.329V25.971C288.326 15.769 296.596 7.5 306.797 7.5H399.154C409.356 7.5 417.625 15.77 417.625 25.971V118.328C417.625 128.53 409.355 136.8 399.154 136.8Z" fill="#B3E59F"/>
<path d="M400.707 7.578C400.902 10.143 401.001 12.735 401.001 15.35C401.001 71.203 355.723 116.481 299.87 116.481C295.965 116.481 292.115 116.252 288.325 115.821V118.328C288.325 128.53 296.595 136.799 306.796 136.799H399.153C409.354 136.799 417.624 128.529 417.624 118.328V25.971C417.625 16.294 410.18 8.369 400.707 7.578V7.578Z" fill="#95D6A4"/>
<path d="M399.154 298.426H306.797C296.595 298.426 288.326 290.156 288.326 279.955V187.598C288.326 177.396 296.596 169.127 306.797 169.127H399.154C409.356 169.127 417.625 177.397 417.625 187.598V279.955C417.625 290.156 409.355 298.426 399.154 298.426Z" fill="#90D8F9"/>
<path d="M400.707 169.204C400.902 171.769 401.001 174.361 401.001 176.976C401.001 232.829 355.723 278.107 299.87 278.107C295.965 278.107 292.115 277.878 288.325 277.447V279.954C288.325 290.156 296.595 298.425 306.796 298.425H399.153C409.354 298.425 417.624 290.155 417.624 279.954V187.597C417.625 177.92 410.18 169.994 400.707 169.204V169.204Z" fill="#75CEF9"/>
<path d="M91.13 495.129L104.043 504.498H286.447L275.534 469.172L273.53 432.551C273.35 429.252 272.765 425.988 271.79 422.832L240.304 320.916C237.07 310.449 226.177 304.049 215.602 306.909C204.5 309.911 198.189 321.486 201.555 332.38L195.436 312.575C192.202 302.108 181.31 295.708 170.734 298.568C159.632 301.57 153.321 313.145 156.687 324.039L150.867 305.199C147.633 294.732 136.74 288.332 126.165 291.192C115.063 294.194 108.752 305.769 112.118 316.663L91.985 251.496C88.751 241.029 77.858 234.629 67.283 237.489C56.181 240.491 49.87 252.066 53.236 262.96L89.017 378.778C85.723 368.117 74.411 362.145 63.751 365.439C53.09 368.733 47.118 380.045 50.412 390.705L76.254 474.351C78.834 482.704 84.054 489.995 91.13 495.129V495.129Z" fill="#BA917E"/>
<path d="M165.501 504.498H286.447L275.534 469.172L273.53 432.551C273.35 429.252 272.765 425.988 271.79 422.832L251.555 357.333C243.739 401.077 222.539 463.448 165.501 504.498V504.498Z" fill="#9C776D"/>
<path d="M25.971 144.299H118.331C132.65 144.299 144.301 132.649 144.301 118.329V25.97C144.3 11.65 132.65 0 118.331 0H67.211C63.068 0 59.711 3.358 59.711 7.5C59.711 11.642 63.068 15 67.211 15H118.331C124.38 15 129.301 19.921 129.301 25.97V118.33C129.301 124.379 124.38 129.3 118.331 129.3H25.971C19.922 129.3 15.001 124.379 15.001 118.33V25.97C15.001 19.921 19.922 15 25.971 15H32.211C36.354 15 39.711 11.642 39.711 7.5C39.711 3.358 36.353 0 32.211 0H25.971C11.651 0 0.00100708 11.65 0.00100708 25.97V118.33C0.00100708 132.649 11.651 144.299 25.971 144.299V144.299Z" fill="white"/>
<path d="M43.96 111.484C47.83 112.957 52.164 111.016 53.639 107.145L57.845 96.101H86.496L90.656 107.123C91.789 110.126 94.643 111.977 97.674 111.977C98.554 111.977 99.449 111.821 100.321 111.492C104.196 110.03 106.152 105.702 104.689 101.827L80.633 38.085C80.608 38.017 80.581 37.949 80.553 37.881C79.165 34.506 75.911 32.325 72.262 32.325C72.259 32.325 72.256 32.325 72.253 32.325C68.601 32.328 65.347 34.515 63.964 37.896C63.941 37.952 63.918 38.009 63.897 38.066L39.621 101.806C38.146 105.677 40.09 110.01 43.96 111.484V111.484ZM72.236 58.315L80.835 81.101H63.558L72.236 58.315Z" fill="white"/>
<path d="M169.126 47.325H223.675C227.818 47.325 231.175 43.967 231.175 39.825C231.175 35.683 227.818 32.325 223.675 32.325H169.126C164.983 32.325 161.626 35.683 161.626 39.825C161.626 43.967 164.984 47.325 169.126 47.325Z" fill="white"/>
<path d="M169.126 79.65H203.472C207.615 79.65 210.972 76.292 210.972 72.15C210.972 68.008 207.615 64.65 203.472 64.65H169.126C164.983 64.65 161.626 68.008 161.626 72.15C161.626 76.292 164.984 79.65 169.126 79.65Z" fill="white"/>
<path d="M169.126 111.975H203.472C207.615 111.975 210.972 108.617 210.972 104.475C210.972 100.333 207.615 96.975 203.472 96.975H169.126C164.983 96.975 161.626 100.333 161.626 104.475C161.626 108.617 164.984 111.975 169.126 111.975Z" fill="white"/>
<path d="M169.126 208.95H223.675C227.818 208.95 231.175 205.592 231.175 201.45C231.175 197.308 227.818 193.95 223.675 193.95H169.126C164.983 193.95 161.626 197.308 161.626 201.45C161.626 205.592 164.984 208.95 169.126 208.95Z" fill="white"/>
<path d="M169.126 241.275H203.472C207.615 241.275 210.972 237.917 210.972 233.775C210.972 229.633 207.615 226.275 203.472 226.275H169.126C164.983 226.275 161.626 229.633 161.626 233.775C161.626 237.917 164.984 241.275 169.126 241.275Z" fill="white"/>
<path d="M169.126 273.601H203.472C207.615 273.601 210.972 270.243 210.972 266.101C210.972 261.959 207.615 258.601 203.472 258.601H169.126C164.983 258.601 161.626 261.959 161.626 266.101C161.626 270.243 164.984 273.601 169.126 273.601Z" fill="white"/>
<path d="M306.797 144.3H399.154C413.475 144.3 425.126 132.649 425.126 118.328V25.972C425.125 11.651 413.475 0 399.154 0H306.797C292.476 0 280.825 11.651 280.825 25.972V118.329C280.825 132.649 292.475 144.3 306.797 144.3ZM295.825 25.972C295.825 19.922 300.747 15 306.797 15H399.154C405.204 15 410.126 19.922 410.126 25.972V118.329C410.126 124.379 405.204 129.301 399.154 129.301H306.797C300.747 129.301 295.825 124.379 295.825 118.329V25.972Z" fill="white"/>
<path d="M358.956 111.975C367.716 111.975 375.575 109.099 381.685 103.658C382.882 102.591 384.021 101.417 385.068 100.167C387.729 96.993 387.312 92.262 384.137 89.602C380.963 86.942 376.232 87.358 373.572 90.532C372.991 91.225 372.365 91.872 371.709 92.456C368.342 95.455 364.052 96.975 358.956 96.975C345.268 96.975 334.131 85.838 334.131 72.15C334.131 58.462 345.268 47.325 358.956 47.325C363.932 47.325 368.729 48.789 372.831 51.56C376.263 53.878 380.925 52.976 383.244 49.543C385.562 46.111 384.66 41.449 381.227 39.13C374.636 34.678 366.935 32.324 358.956 32.324C336.996 32.324 319.131 50.19 319.131 72.149C319.131 94.108 336.996 111.975 358.956 111.975Z" fill="white"/>
<path d="M399.15 161.629H352.98C348.837 161.629 345.48 164.987 345.48 169.129C345.48 173.271 348.837 176.629 352.98 176.629H399.15C405.204 176.629 410.129 181.55 410.129 187.599V279.959C410.129 286.008 405.203 290.929 399.15 290.929H306.8C300.751 290.929 295.83 286.008 295.83 279.959V187.599C295.83 181.55 300.751 176.629 306.8 176.629H317.981C322.124 176.629 325.481 173.271 325.481 169.129C325.481 164.987 322.124 161.629 317.981 161.629H306.8C292.481 161.629 280.83 173.279 280.83 187.599V279.959C280.83 294.279 292.48 305.929 306.8 305.929H399.15C413.475 305.929 425.129 294.279 425.129 279.959V187.599C425.129 173.28 413.475 161.629 399.15 161.629V161.629Z" fill="white"/>
<path d="M323.266 265.05C323.333 267.377 323.869 269.761 325.614 271.423C327.018 272.818 328.918 273.6 330.897 273.6H330.925C331.479 273.598 344.53 273.547 349.742 273.457C368.83 273.123 382.683 256.434 382.683 233.775C382.683 209.954 369.177 193.95 349.076 193.95H330.766C328.775 193.95 326.865 194.742 325.457 196.152C324.051 197.562 323.262 199.473 323.266 201.464V201.515V201.517V265.05ZM349.077 208.95C362.797 208.95 367.684 221.774 367.684 233.775C367.684 245.903 362.055 258.239 349.481 258.459C346.94 258.503 342.355 258.539 338.372 258.563C338.348 250.917 338.313 239.401 338.313 233.704C338.313 228.946 338.293 216.902 338.28 208.95H349.077Z" fill="white"/>
<path d="M449.95 47.325H504.499C508.642 47.325 511.999 43.967 511.999 39.825C511.999 35.683 508.642 32.325 504.499 32.325H449.95C445.807 32.325 442.45 35.683 442.45 39.825C442.45 43.967 445.808 47.325 449.95 47.325Z" fill="white"/>
<path d="M449.95 79.65H484.296C488.439 79.65 491.796 76.292 491.796 72.15C491.796 68.008 488.439 64.65 484.296 64.65H449.95C445.807 64.65 442.45 68.008 442.45 72.15C442.45 76.292 445.808 79.65 449.95 79.65Z" fill="white"/>
<path d="M449.95 111.975H484.296C488.439 111.975 491.796 108.617 491.796 104.475C491.796 100.333 488.439 96.975 484.296 96.975H449.95C445.807 96.975 442.45 100.333 442.45 104.475C442.45 108.617 445.808 111.975 449.95 111.975Z" fill="white"/>
<path d="M504.499 193.95H449.95C445.807 193.95 442.45 197.308 442.45 201.45C442.45 205.592 445.807 208.95 449.95 208.95H504.499C508.642 208.95 511.999 205.592 511.999 201.45C511.999 197.308 508.642 193.95 504.499 193.95Z" fill="white"/>
<path d="M484.296 226.275H449.95C445.807 226.275 442.45 229.633 442.45 233.775C442.45 237.917 445.807 241.275 449.95 241.275H484.296C488.439 241.275 491.796 237.917 491.796 233.775C491.796 229.633 488.439 226.275 484.296 226.275Z" fill="white"/>
<path d="M484.296 258.601H449.95C445.807 258.601 442.45 261.959 442.45 266.101C442.45 270.243 445.807 273.601 449.95 273.601H484.296C488.439 273.601 491.796 270.243 491.796 266.101C491.796 261.958 488.439 258.601 484.296 258.601Z" fill="white"/>
<path d="M259.396 357.304L247.465 318.696C243.039 304.358 227.864 295.823 213.642 299.668C208.869 300.958 204.636 303.422 201.253 306.818C195.595 294.461 182.014 287.747 168.773 291.327C163.944 292.632 159.67 295.137 156.268 298.592C153.461 292.944 148.962 288.555 143.618 285.89C144.068 283.963 144.3 281.976 144.3 279.957V187.597C144.3 173.277 132.65 161.627 118.33 161.627H25.97C11.651 161.627 0 173.277 0 187.597V279.957C0 294.277 11.65 305.927 25.97 305.927H58.665L74.583 357.456C70.284 356.684 65.83 356.946 61.535 358.271C49.85 361.883 42 372.519 42 384.737C42 387.475 42.417 390.224 43.244 392.92L69.087 476.578C72.178 486.546 78.275 495.06 86.728 501.209L99.638 510.569C100.968 511.533 102.508 511.997 104.034 511.997C106.355 511.997 108.645 510.922 110.112 508.899C112.543 505.546 111.796 500.856 108.442 498.424L95.542 489.071C89.733 484.846 85.54 478.99 83.416 472.143L57.58 388.508C55.448 381.906 59.305 374.565 65.962 372.604C72.439 370.455 79.982 374.425 81.851 380.991L96.141 427.245L91.589 435.867C89.654 439.53 91.056 444.067 94.719 446.001C95.836 446.591 97.033 446.87 98.214 446.87C100.906 446.87 103.509 445.416 104.854 442.871L110.857 431.501C111.786 429.742 111.977 427.686 111.39 425.785L60.406 260.742C56.18 244.168 79.139 237.444 84.815 253.703L123.439 378.717C126.732 388.134 140.379 383.832 137.771 374.289L119.284 314.45C119.278 314.432 119.27 314.415 119.265 314.397C118.258 311.088 118.622 307.598 120.295 304.563C121.973 301.518 124.752 299.339 128.112 298.431C134.628 296.676 141.624 300.706 143.697 307.428L162.045 366.79C165.338 376.207 178.985 371.905 176.377 362.362C176.377 362.362 163.863 321.846 163.857 321.824C162.829 318.498 163.187 314.988 164.866 311.941C166.543 308.898 169.321 306.72 172.689 305.81C179.21 304.051 186.198 308.081 188.275 314.791L200.652 354.863C203.445 364.239 217.98 359.661 214.984 350.435L208.697 330.083C207.703 326.784 208.068 323.307 209.735 320.282C211.414 317.237 214.192 315.059 217.558 314.149C224.08 312.383 231.063 316.412 233.135 323.123L245.066 361.733C246.289 365.69 250.484 367.911 254.446 366.684C258.402 365.461 260.619 361.262 259.396 357.304V357.304ZM71.2 223.703C69.855 223.703 67.354 223.71 64.606 223.72H59.921V208.95H71.2C75.267 208.95 78.576 212.259 78.576 216.326C78.576 220.394 75.267 223.703 71.2 223.703ZM112.006 290.908L99.342 249.907C99.343 249.887 99.347 249.867 99.348 249.847C99.369 249.44 99.38 249.03 99.38 248.618C99.38 240.609 95.576 233.477 89.684 228.919C92.138 225.329 93.576 220.992 93.576 216.325C93.576 203.987 83.538 193.949 71.2 193.949H52.421C48.278 193.949 44.921 197.307 44.921 201.449V266.098C44.921 268.1 45.722 270.019 47.145 271.428C47.5 271.779 47.886 272.091 48.297 272.361L54.033 290.928H25.971C19.922 290.928 15.001 286.007 15.001 279.958V187.598C15.001 181.549 19.922 176.628 25.971 176.628H118.331C124.38 176.628 129.301 181.549 129.301 187.598V279.958C129.301 281.042 129.139 282.102 128.835 283.116C127.296 283.26 125.748 283.532 124.205 283.948C119.52 285.214 115.357 287.611 112.006 290.908V290.908Z" fill="white"/>
<path d="M282.978 467.836L281.019 432.15C280.804 428.215 280.108 424.333 278.956 420.625L269.726 390.745C268.503 386.788 264.307 384.572 260.346 385.793C256.389 387.016 254.171 391.215 255.394 395.173L264.628 425.065C265.419 427.607 265.894 430.266 266.042 432.97L268.052 469.58C268.085 470.191 268.194 470.797 268.374 471.382L279.284 506.712C280.278 509.933 283.245 512.001 286.447 512.001C287.18 512.001 287.926 511.893 288.663 511.665C292.621 510.443 294.839 506.244 293.616 502.286L282.978 467.836Z" fill="white"/>
</svg>
